X: 4
T: Barlow Knife
S: Sandy Lafleur www.wanderingdulcimer.com 2018-09-11
R: reel
Z: 2018 John Chambers <jc:trillian.mit.edu>
M: C|
L: 1/8
K: D
|:\
"D"d2 d2 "A"cd e2 | "D"d2 d2 "A"A3 A |\
"D"d2 d2 "A"c2 cc | "G"B2 A2 "D"A4 :|
|:\
"G"B2 A2 "D"FF AA | "G"B2 A2 "D"D4 |\
"G"B2  A "D"F2 D2 | "A"EE D2 "D"D4 :|
|:\
"A"E3  E "D"F2 D2 | "A"E2 A2 "D"D4 |\
"A"E3  E "D"F2 D2 | "A"E2 DD "D"D4 :|

%%sep 1 1 500

